icons/midnadark/actions/24/kt-speed-limits.svg

<?xml version="1.0" encoding="UTF-8" standalone="no"?>
<!-- Created with Inkscape (http://www.inkscape.org/) -->

<svg
   xmlns:dc="http://purl.org/dc/elements/1.1/"
   xmlns:cc="http://creativecommons.org/ns#"
   xmlns:rdf="http://www.w3.org/1999/02/22-rdf-syntax-ns#"
   xmlns:svg="http://www.w3.org/2000/svg"
   xmlns="http://www.w3.org/2000/svg"
   xmlns:sodipodi="http://sodipodi.sourceforge.net/DTD/sodipodi-0.dtd"
   xmlns:inkscape="http://www.inkscape.org/namespaces/inkscape"
   width="22"
   height="22"
   id="svg3813"
   version="1.1"
   inkscape:version="0.91 r13725"
   sodipodi:docname="kt-speed-limits.svg">
  <defs
     id="defs3815" />
  <sodipodi:namedview
     id="base"
     pagecolor="#ffffff"
     bordercolor="#666666"
     borderopacity="1.0"
     inkscape:pageopacity="0.0"
     inkscape:pageshadow="2"
     inkscape:zoom="16"
     inkscape:cx="-20.5625"
     inkscape:cy="8.3372805"
     inkscape:document-units="px"
     inkscape:current-layer="g5"
     showgrid="true"
     fit-margin-top="0"
     fit-margin-left="0"
     fit-margin-right="0"
     fit-margin-bottom="0"
     inkscape:window-width="1366"
     inkscape:window-height="633"
     inkscape:window-x="0"
     inkscape:window-y="33"
     inkscape:window-maximized="1"
     inkscape:showpageshadow="false"
     inkscape:object-nodes="true"
     inkscape:snap-bbox="true"
     inkscape:snap-global="false">
    <inkscape:grid
       type="xygrid"
       id="grid4109" />
    <sodipodi:guide
       position="2.0000072,19.999993"
       orientation="18,0"
       id="guide4115" />
    <sodipodi:guide
       position="2.0000072,1.9999929"
       orientation="0,18"
       id="guide4117" />
    <sodipodi:guide
       position="20.000007,1.9999929"
       orientation="-18,0"
       id="guide4119" />
    <sodipodi:guide
       position="20.000007,19.999993"
       orientation="0,-18"
       id="guide4121" />
    <sodipodi:guide
       position="3.0000072,18.999993"
       orientation="16,0"
       id="guide4123" />
    <sodipodi:guide
       position="3.0000072,2.9999929"
       orientation="0,16"
       id="guide4125" />
    <sodipodi:guide
       position="19.000007,2.9999929"
       orientation="-16,0"
       id="guide4127" />
    <sodipodi:guide
       position="19.000007,18.999993"
       orientation="0,-16"
       id="guide4129" />
  </sodipodi:namedview>
  <metadata
     id="metadata3818">
    <rdf:RDF>
      <cc:Work
         rdf:about="">
        <dc:format>image/svg+xml</dc:format>
        <dc:type
           rdf:resource="http://purl.org/dc/dcmitype/StillImage" />
        <dc:title />
      </cc:Work>
    </rdf:RDF>
  </metadata>
  <g
     inkscape:label="Capa 1"
     inkscape:groupmode="layer"
     id="layer1"
     transform="translate(-378.85714,-540.07647)">
    <g
       id="g3"
       transform="matrix(0.02658695,0,0,0.02658695,363.48214,543.92022)">
      <g
         id="g5">
        <g
           id="g4148"
           transform="translate(1.3833536e-5,1.1538857e-6)"
           style="fill:#ffffff;fill-opacity:1">
          <path
             style="fill:#ffffff;fill-opacity:1"
             d="M 11 3 C 6.5817009 3 3 6.5817009 3 11 C 3 15.418299 6.5817009 19 11 19 C 15.418298 19 19 15.418299 19 11 C 19 6.5817009 15.418298 3 11 3 z M 10.845703 4.5527344 C 10.929106 4.5501289 11.012539 4.555164 11.095703 4.5585938 C 11.262643 4.5616778 11.427528 4.5765094 11.59375 4.5917969 C 11.924784 4.6310924 12.255533 4.6879339 12.576172 4.7734375 C 13.217901 4.9414407 13.828665 5.199725 14.375 5.5292969 C 14.444365 5.5688317 14.510555 5.6120093 14.576172 5.65625 C 14.642081 5.7000921 14.709257 5.7419647 14.773438 5.7871094 C 14.900204 5.8796054 15.028093 5.967556 15.146484 6.0664062 C 15.38909 6.2573537 15.610411 6.4663676 15.816406 6.6777344 C 16.223825 7.1049335 16.561846 7.55751 16.822266 8.0078125 C 17.083775 8.4576371 17.273632 8.8993571 17.410156 9.3027344 C 17.548701 9.7060053 17.629663 10.072361 17.681641 10.375 C 17.694004 10.450906 17.705737 10.522233 17.716797 10.589844 C 17.726235 10.659741 17.733162 10.728696 17.740234 10.791016 C 17.746934 10.853814 17.752096 10.911643 17.757812 10.964844 C 17.762944 11.016981 17.764654 11.053565 17.767578 11.091797 C 17.777282 11.238238 17.78125 11.316406 17.78125 11.316406 L 16.154297 11.357422 C 16.154297 11.357422 16.156023 11.279599 16.158203 11.132812 C 16.158469 11.097744 16.161193 11.051399 16.160156 11.013672 C 16.158907 10.977062 16.157579 10.935755 16.15625 10.892578 C 16.154947 10.848949 16.153779 10.80199 16.152344 10.751953 C 16.148037 10.698593 16.143537 10.641905 16.138672 10.582031 C 16.117695 10.342696 16.077544 10.051363 15.994141 9.7246094 C 15.912625 9.3977228 15.791375 9.034795 15.611328 8.65625 C 15.432345 8.2773061 15.187738 7.8879113 14.882812 7.5097656 C 14.728023 7.3229923 14.561336 7.135215 14.373047 6.9609375 C 14.281854 6.8703821 14.181121 6.7894528 14.082031 6.703125 C 14.031649 6.6610644 13.979712 6.6213945 13.927734 6.5800781 C 13.876023 6.538443 13.821085 6.4985317 13.765625 6.4609375 C 13.330928 6.1473973 12.834091 5.8861659 12.296875 5.6972656 C 12.02856 5.6013396 11.749005 5.530669 11.464844 5.4726562 C 11.321992 5.4480101 11.178527 5.420474 11.033203 5.40625 C 10.960701 5.3972902 10.88762 5.388089 10.814453 5.3847656 L 10.705078 5.3769531 L 10.650391 5.3730469 L 10.623047 5.3710938 L 10.609375 5.3710938 L 10.601562 5.3710938 C 10.603849 5.3708545 10.587177 5.3696192 10.605469 5.3691406 C 10.451796 5.3681569 10.283579 5.3608189 10.148438 5.3691406 C 10.007925 5.3704434 9.861524 5.3840417 9.7148438 5.3964844 C 9.4232647 5.4300105 9.1322287 5.4767366 8.8496094 5.5507812 C 8.2838657 5.6959994 7.7454683 5.9222032 7.2617188 6.2109375 C 7.2001434 6.245341 7.1401237 6.2814155 7.0820312 6.3203125 C 7.0236995 6.3587838 6.9650726 6.3959323 6.9082031 6.4355469 C 6.796086 6.5170627 6.6810308 6.5945152 6.5761719 6.6816406 C 6.3606581 6.8491384 6.1657123 7.032854 5.9824219 7.21875 C 5.6204671 7.5950348 5.3180416 7.9952362 5.0859375 8.3925781 C 4.8526902 8.7895213 4.6831393 9.1788113 4.5605469 9.5351562 C 4.435987 9.8914214 4.3636778 10.214425 4.3164062 10.482422 C 4.3051068 10.549634 4.2933593 10.613954 4.2832031 10.673828 C 4.2758917 10.734127 4.2699996 10.791108 4.2636719 10.84375 C 4.2505645 10.949008 4.239492 11.038187 4.2363281 11.111328 C 4.2268898 11.258168 4.2226562 11.335938 4.2226562 11.335938 C 4.2226562 11.335938 4.2209301 11.258168 4.21875 11.111328 C 4.215985 11.037682 4.2181896 10.946431 4.2226562 10.839844 C 4.2247832 10.786484 4.2281291 10.729145 4.2304688 10.667969 C 4.2357596 10.606952 4.242118 10.543097 4.2480469 10.474609 C 4.2737565 10.200684 4.3185479 9.8660267 4.4160156 9.4921875 C 4.5115425 9.1183484 4.6547598 8.7030704 4.8632812 8.2714844 C 5.0706595 7.8395529 5.3507825 7.3979163 5.7011719 6.96875 C 5.8786929 6.7565061 6.0698285 6.543404 6.2851562 6.3457031 C 6.3898557 6.2434494 6.5054017 6.1501224 6.6191406 6.0527344 C 6.6768077 6.0051437 6.7373202 5.9605897 6.796875 5.9140625 C 6.8561639 5.8671099 6.9171652 5.8219158 6.9804688 5.7792969 C 7.4777245 5.4248128 8.0469814 5.1297338 8.6601562 4.9179688 C 8.9664645 4.8105838 9.2836992 4.7317508 9.6074219 4.6679688 C 9.769815 4.6404513 9.9317639 4.6117351 10.103516 4.5957031 C 10.279654 4.5729181 10.427027 4.5686579 10.585938 4.5566406 L 10.845703 4.5527344 z M 12.994141 9.015625 L 11.107422 11.765625 C 11.15682 12.088231 11.057793 12.430183 10.808594 12.677734 C 10.394263 13.08946 9.7242255 13.086259 9.3125 12.671875 C 8.9007479 12.257544 8.9040018 11.589486 9.3183594 11.177734 C 9.5675589 10.930157 9.9082881 10.833426 10.230469 10.884766 L 12.994141 9.015625 z "
             transform="matrix(37.612438,0,0,37.612438,578.29122,-144.57281)"
             id="path4157" />
          <g
             id="g4174"
             transform="translate(168.14951,255.48129)"
             style="fill:#ffffff;fill-opacity:1" />
        </g>
      </g>
    </g>
  </g>
</svg>

<svg xmlns="http://www.w3.org/2000/svg" viewBox="0 0 22 22"><path d="m11 3c-4.418 0-8 3.582-8 8 0 4.418 3.582 8 8 8 4.418 0 8-3.582 8-8 0-4.418-3.582-8-8-8m-.154 1.553c.083-.003.167.002.25.006.167.003.332.018.498.033.331.039.662.096.982.182.642.168 1.252.426 1.799.756.069.04.136.083.201.127.066.044.133.086.197.131.127.092.255.18.373.279.243.191.464.4.67.611.407.427.745.88 1.01 1.33.262.45.451.892.588 1.295.139.403.22.77.271 1.072.012.076.024.147.035.215.009.07.016.139.023.201.007.063.012.121.018.174.005.052.007.089.001.127.001.146.014.225.014.225l-1.627.041c0 0 .002-.078.004-.225 0-.035.003-.081.002-.119-.0001-.037-.003-.078-.004-.121-.0001-.044-.002-.091-.004-.141-.004-.053-.009-.11-.014-.17-.021-.239-.061-.531-.145-.857-.082-.327-.203-.69-.383-1.068-.179-.379-.424-.768-.729-1.146-.155-.187-.321-.375-.51-.549-.091-.091-.192-.171-.291-.258-.05-.042-.102-.082-.154-.123-.052-.042-.107-.082-.162-.119-.435-.314-.932-.575-1.469-.764-.268-.096-.548-.167-.832-.225-.143-.025-.286-.052-.432-.066-.073-.009-.146-.018-.219-.021l-.109-.008-.055-.004-.027-.002h-.014-.008c.002 0-.014-.0001.004-.002-.154-.0001-.322-.008-.457 0-.141.0001-.287.015-.434.027-.292.034-.583.08-.865.154-.566.145-1.104.371-1.588.66-.062.034-.122.07-.18.109-.058.038-.117.076-.174.115-.112.082-.227.159-.332.246-.216.167-.41.351-.594.537-.362.376-.664.776-.896 1.174-.233.397-.403.786-.525 1.143-.125.356-.197.679-.244.947-.011.067-.023.132-.033.191-.007.06-.013.117-.02.17-.013.105-.024.194-.027.268-.009.147-.014.225-.014.225 0 0-.002-.078-.004-.225-.003-.074-.0001-.165.004-.271.002-.053.005-.111.008-.172.005-.061.012-.125.018-.193.026-.274.071-.609.168-.982.096-.374.239-.789.447-1.221.207-.432.488-.874.838-1.303.178-.212.369-.425.584-.623.105-.102.22-.196.334-.293.058-.048.118-.092.178-.139.059-.047.12-.092.184-.135.497-.354 1.067-.65 1.68-.861.306-.107.624-.186.947-.25.162-.028.324-.056.496-.072.176-.023.324-.027.482-.039l.26-.004m2.148 4.463l-1.887 2.75c.049.323-.05.665-.299.912-.414.412-1.084.409-1.496-.006-.412-.414-.408-1.082.006-1.494.249-.248.59-.344.912-.293l2.764-1.869" transform="translate(.003.004)" fill="#fff"/></svg>
